packages/assets/static/images/icons/bold/user-plus--bold.svg

<svg width="24" height="24" viewBox="0 0 24 24" xmlns="http://www.w3.org/2000/svg">
<g clip-path="url(#clip0_2001_46618)">
<path d="M24.0002 12.7499C24.0002 13.0483 23.8817 13.3344 23.6707 13.5454C23.4597 13.7564 23.1736 13.8749 22.8752 13.8749H22.1252V14.6249C22.1252 14.9233 22.0067 15.2094 21.7957 15.4204C21.5847 15.6314 21.2986 15.7499 21.0002 15.7499C20.7018 15.7499 20.4157 15.6314 20.2047 15.4204C19.9937 15.2094 19.8752 14.9233 19.8752 14.6249V13.8749H19.1252C18.8268 13.8749 18.5407 13.7564 18.3297 13.5454C18.1187 13.3344 18.0002 13.0483 18.0002 12.7499C18.0002 12.4515 18.1187 12.1654 18.3297 11.9544C18.5407 11.7434 18.8268 11.6249 19.1252 11.6249H19.8752V10.8749C19.8752 10.5765 19.9937 10.2904 20.2047 10.0794C20.4157 9.86841 20.7018 9.74988 21.0002 9.74988C21.2986 9.74988 21.5847 9.86841 21.7957 10.0794C22.0067 10.2904 22.1252 10.5765 22.1252 10.8749V11.6249H22.8752C23.1736 11.6249 23.4597 11.7434 23.6707 11.9544C23.8817 12.1654 24.0002 12.4515 24.0002 12.7499ZM18.8618 18.0261C19.0537 18.2546 19.147 18.55 19.1212 18.8473C19.0954 19.1446 18.9525 19.4195 18.724 19.6114C18.4955 19.8034 18.2001 19.8967 17.9028 19.8709C17.6055 19.845 17.3306 19.7021 17.1387 19.4736C15.8552 17.9455 13.594 16.1249 10.1252 16.1249C7.41678 16.1249 4.92584 17.3136 3.11178 19.4736C2.91983 19.7021 2.64497 19.845 2.34766 19.8709C2.05036 19.8967 1.75497 19.8034 1.52647 19.6114C1.29797 19.4195 1.15508 19.1446 1.12923 18.8473C1.10339 18.55 1.1967 18.2546 1.38865 18.0261C2.6109 16.55 4.17892 15.3987 5.95334 14.6746C4.84993 13.8071 4.04439 12.6172 3.64883 11.2705C3.25326 9.92381 3.28733 8.4873 3.74632 7.16087C4.2053 5.83445 5.06635 4.6841 6.20965 3.86991C7.35295 3.05571 8.72163 2.61816 10.1252 2.61816C11.5288 2.61816 12.8975 3.05571 14.0408 3.86991C15.1841 4.6841 16.0451 5.83445 16.5041 7.16087C16.9631 8.4873 16.9972 9.92381 16.6016 11.2705C16.206 12.6172 15.4005 13.8071 14.2971 14.6746C16.0717 15.3984 17.6398 16.5498 18.8618 18.0261ZM10.1252 13.8749C11.0152 13.8749 11.8853 13.611 12.6253 13.1165C13.3653 12.622 13.9421 11.9192 14.2827 11.097C14.6233 10.2747 14.7124 9.36989 14.5387 8.49698C14.3651 7.62406 13.9365 6.82224 13.3072 6.1929C12.6779 5.56357 11.876 5.13498 11.0031 4.96135C10.1302 4.78772 9.22541 4.87683 8.40314 5.21743C7.58087 5.55802 6.87807 6.1348 6.3836 6.87482C5.88914 7.61484 5.62522 8.48487 5.62522 9.37488C5.62646 10.568 6.10096 11.7118 6.94461 12.5555C7.78825 13.3991 8.93212 13.8736 10.1252 13.8749Z"/>
</g>
<defs>
<clipPath id="clip0_2001_46618">
<rect width="24" height="24"/>
</clipPath>
</defs>
</svg>

<svg viewBox="0 0 24 24" xmlns="http://www.w3.org/2000/svg" aria-hidden="true" fill="currentColor"><g clip-path="url(#a)"><path d="M24 12.75a1.125 1.125 0 0 1-1.125 1.125h-.75v.75a1.125 1.125 0 1 1-2.25 0v-.75h-.75a1.125 1.125 0 1 1 0-2.25h.75v-.75a1.125 1.125 0 1 1 2.25 0v.75h.75A1.125 1.125 0 0 1 24 12.75m-5.138 5.276a1.126 1.126 0 0 1-1.723 1.448c-1.284-1.529-3.545-3.35-7.014-3.35-2.708 0-5.2 1.19-7.013 3.35a1.126 1.126 0 0 1-1.723-1.448 11.63 11.63 0 0 1 4.564-3.351 6.75 6.75 0 1 1 8.344 0 11.6 11.6 0 0 1 4.565 3.351m-8.737-4.151a4.5 4.5 0 1 0 0-9 4.5 4.5 0 0 0 0 9"/></g><defs><clipPath id="a"><path d="M0 0h24v24H0z"/></clipPath></defs></svg>
